!!! OTL: Literature125
!!! Chapter: 5
!!! Section: IV
!!! Page: 374
!!! Mode: 
!!! Encoder: DJB
**kern
*staff1
*I"Piano
=1-
*clefF4
*k[]
*a:
*M3/4
8.A\L
16B\Jk
8.c\L
16B\Jk
8.A\L
16F\Jk
=2
8.E\L
16C\Jk
4AA/
4r
=3
8.C/L
16D/Jk
8.E\L
16F\Jk
8.G\L
16F\Jk
=4
8.E\L
16D\Jk
4C/
4r
=5
8.A\L
16B\Jk
8.c\L
16B\Jk
8.A\L
16F\Jk
=6
8.E\L
16D#\Jk
2E\
=7
8.F\L
16G-\Jk
8.A-\L
16B-\Jk
8.A-\L
16G-\Jk
=8
!!linebreak:original
8.F\L
16E-\Jk
2D-\
=9
8.D\L
16E\Jk
8.F\L
16G\Jk
8.A\L
16B\Jk
=10
8.c\L
16d\Jk
2e\
=11
8D/L
16C/L
16BB/JJ
4..E\
32D#\LLL
32E\JJJ
=12
8.A\L
16F\Jk
8.E\L
16D\Jk
8.C/L
16BB/Jk
=13
2AA/
4r
==
*-
